media/images/payment.svg

<svg width="57" height="36" viewBox="0 0 57 36" fill="none" xmlns="http://www.w3.org/2000/svg">
<path d="M2.94682 0.378486H54.405C55.4501 0.378486 56.2974 1.22576 56.2974 2.27092V33.7291C56.2974 34.7742 55.4501 35.6215 54.405 35.6215H2.94682C1.90166 35.6215 1.05439 34.7742 1.05439 33.7291V2.27092C1.05439 1.22576 1.90166 0.378486 2.94682 0.378486Z" stroke="#B8B8B8" stroke-width="0.756972"/>
<path d="M11.2503 16H10.5237V11.9102H5.64872V16H4.92801V7.46875H5.64872V11.3008H10.5237V7.46875H11.2503V16ZM17.022 16C16.9517 15.8008 16.9068 15.5059 16.8872 15.1152C16.6411 15.4355 16.3267 15.6836 15.9439 15.8594C15.565 16.0312 15.1626 16.1172 14.7368 16.1172C14.1275 16.1172 13.6333 15.9473 13.2544 15.6074C12.8794 15.2676 12.6919 14.8379 12.6919 14.3184C12.6919 13.7012 12.9478 13.2129 13.4595 12.8535C13.9751 12.4941 14.6919 12.3145 15.6099 12.3145H16.8814V11.5938C16.8814 11.1406 16.7407 10.7852 16.4595 10.5273C16.1822 10.2656 15.7759 10.1348 15.2407 10.1348C14.7525 10.1348 14.3482 10.2598 14.0279 10.5098C13.7075 10.7598 13.5474 11.0605 13.5474 11.4121L12.8443 11.4062C12.8443 10.9023 13.0786 10.4668 13.5474 10.0996C14.0161 9.72852 14.5923 9.54297 15.2759 9.54297C15.9829 9.54297 16.5396 9.7207 16.9458 10.0762C17.356 10.4277 17.5669 10.9199 17.5786 11.5527V14.5527C17.5786 15.166 17.6431 15.625 17.772 15.9297V16H17.022ZM14.8189 15.4961C15.2876 15.4961 15.7056 15.3828 16.0728 15.1562C16.4439 14.9297 16.7134 14.627 16.8814 14.248V12.8535H15.6275C14.9282 12.8613 14.3814 12.9902 13.9868 13.2402C13.5923 13.4863 13.395 13.8262 13.395 14.2598C13.395 14.6152 13.5259 14.9102 13.7876 15.1445C14.0532 15.3789 14.397 15.4961 14.8189 15.4961ZM24.0886 9.66016V16H23.3855V10.2637H20.7898L20.6785 12.6367C20.6316 13.5156 20.5437 14.1875 20.4148 14.6523C20.2859 15.1133 20.0945 15.4531 19.8406 15.6719C19.5867 15.8906 19.2488 16 18.8269 16H18.5574V15.3789L18.7742 15.3672C19.1765 15.3594 19.4656 15.1641 19.6414 14.7812C19.8172 14.3984 19.9324 13.7148 19.9871 12.7305L20.116 9.66016H24.0886ZM25.3486 12.7363C25.3486 12.127 25.4658 11.5781 25.7002 11.0898C25.9385 10.6016 26.2725 10.2227 26.7022 9.95312C27.1357 9.67969 27.626 9.54297 28.1729 9.54297C29.0166 9.54297 29.7002 9.83984 30.2236 10.4336C30.7471 11.0234 31.0088 11.8066 31.0088 12.7832V12.9297C31.0088 13.543 30.8897 14.0957 30.6514 14.5879C30.417 15.0762 30.085 15.4531 29.6553 15.7188C29.2256 15.9844 28.7354 16.1172 28.1846 16.1172C27.3447 16.1172 26.6611 15.8223 26.1338 15.2324C25.6104 14.6387 25.3486 13.8535 25.3486 12.877V12.7363ZM26.0518 12.9297C26.0518 13.6875 26.2471 14.3105 26.6377 14.7988C27.0322 15.2832 27.5479 15.5254 28.1846 15.5254C28.8174 15.5254 29.3291 15.2832 29.7197 14.7988C30.1143 14.3105 30.3115 13.668 30.3115 12.8711V12.7363C30.3115 12.252 30.2217 11.8086 30.042 11.4062C29.8623 11.0039 29.6104 10.6934 29.2861 10.4746C28.9619 10.252 28.5908 10.1406 28.1729 10.1406C27.5479 10.1406 27.0381 10.3867 26.6436 10.8789C26.249 11.3672 26.0518 12.0078 26.0518 12.8008V12.9297ZM36.9387 13.0703H36.095V16H35.3918V13.0703H34.554L32.2102 16H31.3196L33.9446 12.748L31.6125 9.66016H32.4622L34.5422 12.4434H35.3918V9.66016H36.095V12.4434H36.9504L39.0305 9.66016H39.8918L37.5481 12.748L40.179 16H39.2825L36.9387 13.0703ZM43.4018 16.1172C42.8628 16.1172 42.3745 15.9844 41.937 15.7188C41.5034 15.4531 41.1655 15.084 40.9233 14.6113C40.6811 14.1348 40.56 13.6016 40.56 13.0117V12.7598C40.56 12.1504 40.6772 11.6016 40.9116 11.1133C41.1499 10.625 41.48 10.2422 41.9018 9.96484C42.3237 9.68359 42.7807 9.54297 43.2729 9.54297C44.0425 9.54297 44.6518 9.80664 45.1011 10.334C45.5542 10.8574 45.7807 11.5742 45.7807 12.4844V12.877H41.2573V13.0117C41.2573 13.7305 41.4624 14.3301 41.8725 14.8105C42.2866 15.2871 42.8061 15.5254 43.4311 15.5254C43.8061 15.5254 44.1362 15.457 44.4214 15.3203C44.7104 15.1836 44.9722 14.9648 45.2065 14.6641L45.646 14.998C45.1304 15.7441 44.3823 16.1172 43.4018 16.1172ZM43.2729 10.1406C42.7456 10.1406 42.3003 10.334 41.937 10.7207C41.5776 11.1074 41.3589 11.627 41.2807 12.2793H45.0835V12.2031C45.0639 11.5938 44.8901 11.0977 44.562 10.7148C44.2339 10.332 43.8042 10.1406 43.2729 10.1406ZM51.7751 16H51.072V13.0938H47.656V16H46.9529V9.66016H47.656V12.502H51.072V9.66016H51.7751V16ZM14.4291 29H13.726V23.2637H10.31V29H9.60684V22.6602H14.4291V29ZM20.945 22.6602V29H20.2418V23.2637H17.6461L17.5348 25.6367C17.4879 26.5156 17.4 27.1875 17.2711 27.6523C17.1422 28.1133 16.9508 28.4531 16.6969 28.6719C16.443 28.8906 16.1051 29 15.6832 29H15.4137V28.3789L15.6305 28.3672C16.0329 28.3594 16.3219 28.1641 16.4977 27.7812C16.6735 27.3984 16.7887 26.7148 16.8434 25.7305L16.9723 22.6602H20.945ZM26.5936 29C26.5233 28.8008 26.4784 28.5059 26.4589 28.1152C26.2128 28.4355 25.8983 28.6836 25.5155 28.8594C25.1366 29.0312 24.7343 29.1172 24.3085 29.1172C23.6991 29.1172 23.205 28.9473 22.8261 28.6074C22.4511 28.2676 22.2636 27.8379 22.2636 27.3184C22.2636 26.7012 22.5194 26.2129 23.0311 25.8535C23.5468 25.4941 24.2636 25.3145 25.1815 25.3145H26.453V24.5938C26.453 24.1406 26.3124 23.7852 26.0311 23.5273C25.7538 23.2656 25.3475 23.1348 24.8124 23.1348C24.3241 23.1348 23.9198 23.2598 23.5995 23.5098C23.2792 23.7598 23.119 24.0605 23.119 24.4121L22.4159 24.4062C22.4159 23.9023 22.6503 23.4668 23.119 23.0996C23.5878 22.7285 24.1639 22.543 24.8475 22.543C25.5546 22.543 26.1112 22.7207 26.5175 23.0762C26.9276 23.4277 27.1386 23.9199 27.1503 24.5527V27.5527C27.1503 28.166 27.2147 28.625 27.3436 28.9297V29H26.5936ZM24.3905 28.4961C24.8593 28.4961 25.2772 28.3828 25.6444 28.1562C26.0155 27.9297 26.285 27.627 26.453 27.248V25.8535H25.1991C24.4999 25.8613 23.953 25.9902 23.5585 26.2402C23.1639 26.4863 22.9667 26.8262 22.9667 27.2598C22.9667 27.6152 23.0975 27.9102 23.3593 28.1445C23.6249 28.3789 23.9686 28.4961 24.3905 28.4961ZM33.2443 23.2578H30.9357V29H30.2325V23.2578H28.0118V22.6602H33.2443V23.2578ZM36.1449 29.1172C35.6058 29.1172 35.1175 28.9844 34.68 28.7188C34.2465 28.4531 33.9086 28.084 33.6664 27.6113C33.4242 27.1348 33.3031 26.6016 33.3031 26.0117V25.7598C33.3031 25.1504 33.4203 24.6016 33.6547 24.1133C33.8929 23.625 34.223 23.2422 34.6449 22.9648C35.0668 22.6836 35.5238 22.543 36.016 22.543C36.7855 22.543 37.3949 22.8066 37.8441 23.334C38.2972 23.8574 38.5238 24.5742 38.5238 25.4844V25.877H34.0004V26.0117C34.0004 26.7305 34.2054 27.3301 34.6156 27.8105C35.0297 28.2871 35.5492 28.5254 36.1742 28.5254C36.5492 28.5254 36.8793 28.457 37.1644 28.3203C37.4535 28.1836 37.7152 27.9648 37.9496 27.6641L38.389 27.998C37.8734 28.7441 37.1254 29.1172 36.1449 29.1172ZM36.016 23.1406C35.4886 23.1406 35.0433 23.334 34.68 23.7207C34.3207 24.1074 34.1019 24.627 34.0238 25.2793H37.8265V25.2031C37.807 24.5938 37.6332 24.0977 37.305 23.7148C36.9769 23.332 36.5472 23.1406 36.016 23.1406ZM44.4947 26.0703H43.651V29H42.9479V26.0703H42.11L39.7662 29H38.8756L41.5006 25.748L39.1686 22.6602H40.0182L42.0982 25.4434H42.9479V22.6602H43.651V25.4434H44.5064L46.5865 22.6602H47.4479L45.1041 25.748L47.735 29H46.8385L44.4947 26.0703Z" fill="#666666"/>
</svg>

<svg width="57" height="36" fill="none" xmlns="http://www.w3.org/2000/svg"><path d="M2.947.378h51.458c1.045 0 1.892.848 1.892 1.893v31.458a1.892 1.892 0 0 1-1.892 1.892H2.947a1.892 1.892 0 0 1-1.893-1.892V2.271c0-1.045.848-1.893 1.893-1.893z" stroke="#B8B8B8" stroke-width=".757"/><path d="M11.25 16h-.726v-4.09H5.649V16h-.721V7.469h.72V11.3h4.876V7.469h.726V16zm5.772 0c-.07-.2-.115-.494-.135-.885-.246.32-.56.569-.943.744a2.89 2.89 0 0 1-1.207.258c-.61 0-1.104-.17-1.483-.51a1.664 1.664 0 0 1-.562-1.289c0-.617.256-1.105.768-1.464.515-.36 1.232-.54 2.15-.54h1.271v-.72c0-.453-.14-.809-.422-1.067-.277-.261-.683-.392-1.218-.392-.489 0-.893.125-1.213.375-.32.25-.48.55-.48.902l-.704-.006c0-.504.235-.94.703-1.306.47-.371 1.045-.557 1.729-.557.707 0 1.264.178 1.67.533.41.352.62.844.633 1.477v3c0 .613.064 1.072.193 1.377V16h-.75zm-2.203-.504c.469 0 .887-.113 1.254-.34.37-.226.64-.529.808-.908v-1.394h-1.254c-.699.007-1.246.136-1.64.386-.395.246-.592.586-.592 1.02 0 .355.13.65.393.885.265.234.609.351 1.03.351zm9.27-5.836V16h-.703v-5.736H20.79l-.111 2.373c-.047.879-.135 1.55-.264 2.015-.13.461-.32.801-.574 1.02-.254.219-.592.328-1.014.328h-.27v-.621l.217-.012c.402-.008.692-.203.867-.586.176-.383.291-1.066.346-2.05l.129-3.07h3.973zm1.26 3.076c0-.609.117-1.158.351-1.646a2.71 2.71 0 0 1 1.002-1.137c.434-.273.924-.41 1.47-.41.845 0 1.528.297 2.052.89.523.59.785 1.374.785 2.35v.147a3.76 3.76 0 0 1-.358 1.658 2.632 2.632 0 0 1-.996 1.13 2.74 2.74 0 0 1-1.47.4c-.84 0-1.524-.296-2.051-.886-.524-.593-.785-1.378-.785-2.355v-.14zm.703.194c0 .758.195 1.38.586 1.869.394.484.91.726 1.547.726.632 0 1.144-.242 1.535-.726.394-.489.591-1.131.591-1.928v-.135c0-.484-.09-.927-.269-1.33a2.146 2.146 0 0 0-.756-.931 1.92 1.92 0 0 0-1.113-.334 1.87 1.87 0 0 0-1.53.738c-.394.488-.591 1.129-.591 1.922v.129zm10.887.14h-.844V16h-.703v-2.93h-.838L32.21 16h-.89l2.625-3.252-2.332-3.088h.85l2.08 2.783h.849V9.66h.703v2.783h.855l2.08-2.783h.862l-2.344 3.088L40.18 16h-.897l-2.343-2.93zm6.463 3.047a2.767 2.767 0 0 1-1.465-.398 2.727 2.727 0 0 1-1.014-1.108 3.48 3.48 0 0 1-.363-1.6v-.251c0-.61.117-1.158.352-1.647a2.82 2.82 0 0 1 .99-1.148 2.424 2.424 0 0 1 1.37-.422c.77 0 1.38.264 1.83.791.452.523.679 1.24.679 2.15v.393h-4.524v.135c0 .718.205 1.318.616 1.798.414.477.933.715 1.558.715.375 0 .705-.068.99-.205.29-.136.551-.355.785-.656l.44.334c-.516.746-1.264 1.12-2.244 1.12zm-.13-5.976a1.76 1.76 0 0 0-1.335.58c-.36.386-.578.906-.656 1.558h3.803v-.076c-.02-.61-.194-1.105-.522-1.488s-.758-.574-1.29-.574zM51.776 16h-.703v-2.906h-3.416V16h-.703V9.66h.703v2.842h3.416V9.66h.703V16zM14.43 29h-.703v-5.736H10.31V29h-.703v-6.34h4.822V29zm6.516-6.34V29h-.703v-5.736h-2.596l-.111 2.373c-.047.879-.135 1.55-.264 2.015-.129.461-.32.801-.574 1.02-.254.219-.592.328-1.014.328h-.27v-.621l.217-.012c.403-.008.692-.203.868-.586.175-.383.29-1.066.345-2.05l.13-3.07h3.972zM26.594 29c-.07-.2-.116-.494-.135-.885-.246.32-.56.569-.944.744a2.889 2.889 0 0 1-1.207.258c-.609 0-1.103-.17-1.482-.51a1.664 1.664 0 0 1-.562-1.289c0-.617.255-1.105.767-1.465.516-.359 1.233-.539 2.15-.539h1.272v-.72c0-.453-.14-.809-.422-1.067-.277-.261-.683-.392-1.219-.392-.488 0-.892.125-1.213.375-.32.25-.48.55-.48.902l-.703-.006c0-.504.234-.94.703-1.306.469-.372 1.045-.557 1.729-.557.707 0 1.263.178 1.67.533.41.352.62.844.632 1.477v3c0 .613.065 1.072.194 1.377V29h-.75zm-2.204-.504c.47 0 .887-.113 1.254-.34.372-.226.641-.529.809-.908v-1.395h-1.254c-.7.008-1.246.137-1.64.387-.395.246-.592.586-.592 1.02 0 .355.13.65.392.884.266.235.61.352 1.031.352zm8.854-5.238h-2.308V29h-.703v-5.742h-2.221v-.598h5.232v.598zm2.9 5.86a2.766 2.766 0 0 1-1.464-.4 2.727 2.727 0 0 1-1.014-1.107 3.48 3.48 0 0 1-.363-1.6v-.251c0-.61.117-1.158.352-1.647a2.82 2.82 0 0 1 .99-1.148 2.424 2.424 0 0 1 1.371-.422c.77 0 1.379.264 1.828.791.453.523.68 1.24.68 2.15v.393H34v.135c0 .718.205 1.318.616 1.799.414.476.933.714 1.558.714.375 0 .705-.068.99-.205.29-.136.551-.355.786-.656l.439.334c-.516.746-1.264 1.12-2.244 1.12zm-.128-5.977c-.527 0-.973.193-1.336.58-.36.386-.578.906-.656 1.558h3.803v-.076c-.02-.61-.194-1.105-.522-1.488s-.758-.574-1.289-.574zm8.479 2.93h-.844V29h-.703v-2.93h-.838L39.766 29h-.89l2.625-3.252-2.332-3.088h.85l2.08 2.783h.849V22.66h.703v2.783h.855l2.08-2.783h.862l-2.344 3.088L47.735 29h-.896l-2.344-2.93z" fill="#666"/></svg>
